X:1
T:Amor io parto
T:Amor io parto
T:Giulio Caccini
T:Source : Le nuove Musische di G.Caccini detto Romano---Firenze---G.Marescotti---1601. Editor : André Vierendeels (07/07/15).
T:Notes : Original clefs : C3, F4 Editorial accidentals above tha staff Figures in Bc are notated in original print
C:Giulio Caccini
%%score 1 2
L:1/8
Q:1/4=70
M:2/2
K:F
V:1 treble-8 nm="Tenor" snm="T"
V:2 bass nm="BC" snm="BC"
V:1
 z2 G2 G2 G2 | B6 G2 | G3 G G2 A2 | B2 A>B c4 | A4 A2 B2 | c4 c2 d2 | _e2 d2 ed>ef | d4 z2 d2 | %8
w: A- mor io|par- to'e|sen- to nel par-|ti- * * *|re al pe-|nar al mio|ri- * * * * *|re, ch'io|
 A2 B2 ^F2 G2 | A4 z2 D2 | E2 ^F2 G>A B2 | A4 z2 A2 | B2 d3 c B2 | A4 A4 | d8 | ^c4 d4 | %16
w: par- to da co-|lei ch'e|la mia vi- * *|ta, se|ben el- la gio-|i sce,|quan-|d'il mio|
 d>_e c>d B>c B>c | d-d/c/ B/A/-A B2 A/B/c | A8 | G8 | G4 z2 cc | c2 AA c3 c | c2 F2 G4 | F8 | %24
w: cor _ _ _ _ _ _ _|_ _ _ _ _ _ lan- * * *|gui-|sce.|O, O du-|rez- za'in- cre- di- bi-|l'e'in- fi- ni-|ta,|
 B2 BB A2 G2 | ^F4 G4 | d3 d c=B A2 | =B2 B2 B>c B/A/G/^F/ | G>A G>A =Bc/A/ B/A/B/G/ | A4 c4- | %30
w: d'a- ni- ma che'l suo|co- re|pu- o _ _ _|re- star mor- * * * * *||to'e non|
 c2 =B2 A4- | A4 B2 AB/c/ | A8 | G4 z2 d2 | d4 c>d _e<d | d2 G2 AB c/B/c/A/ | %36
w: _ sen- tir|_ do- * * *|lo-|re, ben|mi tra- * * *|fig- ge'a- mo- * * * * *|
 BG AG/A/ ^F/G/A/G/ A/G/F/G/ | A4 d4- | d2 c2 B4 | A2 D2 d4- | d2 c2 B4- | B4 B>c d<c | c8 | %43
w: |re l'a-|* spra mia|pen' il mio-|* do- lor|_ pun- * * *|gen-|
 B4 z2 d2 | G2 ^F2 GA B/A/B/c/ | A4 z2 f2 | fe d/e/f/d/ _e/d/e/f/dc | =B4 c4- | c2 c2 B2 AB/c/ | %49
w: te, ma|piu mi duol il _ _ _ _|duol, ma|piu mi duol, _ _ _ _ _ _ _ _ il|duol ch'el|_ la non _ _ _|
 A8 | G4 z2 d2 | d4 _e<d e<c | d2 d2 d>c B<A | B>c A>B A>B G2 | A4 d4- | d2 c2 B2 A>B | A2 D2 d4- | %57
w: sen-|te, ben|mi tra- * * *|fig- ge'A- mo- * * *||re l'a-|* spra mia _ _|pen' il mio|
 d2 c2 B4- | B2 B2 B/c/d/e/ c/d/B | c8 | B4 z2 d2 | cB A2 G>A B/A/B/G/ | A4 f3 e/d/ | %63
w: _ do- lor|_ pun- gen- * * * * * *|te|te, ma|piu mi duol, il _ _ _ _ _|duol, ma _ _|
"^b" c>d e<d dc/B/ AB | c2 B2 A4 | =B4 c4- | c2 c2 B>c B>c | d4- dc/B/ A/B/c | A8 | G8 |] %70
w: piu _ _ _ mi _ _ _ _|_ duol', il|duol ch'el|_ la non _ _ _|_ _ _ _ _ _ _|sen-|te.|
V:2
 G,,8 | G,,8 | G,,4 G,2 F,2 |"^7              6" _E,4 E,4 | D,4 D,2 G,2 |"^6" F,4 F,2 D,2 | %6
"^7             6" C,4 C,4 | B,,4 B,4 |"^6" F,2 G,2 D,2 _E,2 |"^6" D,4 =B,,4 | C,2 A,,2 G,,4 | %11
"^#" D,4 D,4 | G,2 B,2 ^F,2 G,2 | D,4 D,,4 |"^-natural" D,8 |"^6" A,2 G,2 ^F,4 | G,4 G,,4 | %17
"^#10""^11" D,4 D,4 |"^11""^#10" D,4 D,,4 | G,,8 | C,4 C,4 |"^6" F,4 E,4 |"^11""^10" F,4 C,2 C,2 | %23
 F,8 |"^6      5" B,,4 C,2 C,2 | D,4 D,,4 | D,4 D,4 | G,4 G,4 |"^7""^#6" E,4 E,2 E,2 | D,4 A,,4 | %30
"^6""^6" E,4 ^C,4 |"^#10""^11" D,4 D,4 |"^11""^#10" D,4 D,,4 |"^-natural""^b" G,,4 G,4 | %34
"^b" G,4 C,4 |"^b""^6" G,4 ^F,4 | G,4 G,,4 | D,4 D,2 E,2 |"^6" ^F,4 G,4 | %39
"^#""^-natural" D,4 D,2 C,2 | B,,6 C,D, |"^7        6" _E,2 F,2 G,2 G,2 |"^11      10" F,4 F,4 | %43
 B,,4 B,,4 |"^b""^7         6" C,2 D,2 _E,2 E,2 | D,4 B,,4 | F,2 G,2 C,2 D,2 |"^6" G,4 E,4 | %48
 ^F,4 G,4 |"^11""^#10" D,4 D,,4 |"^-natural" G,,4 G,4 | G,4 C,4 |"^b" G,4 ^F,4 | G,4 G,,4 | %54
 D,4 D,2 E,2 | ^F,4 G,4 |"^#""^-natural" D,4 D,2 C,2 | B,,4 B,,2 C,D, | %58
"^7         6""^b" _E,2 F,2 G,2 G,2 |"^11      10" F,4 F,4 | B,,4 B,,4 | %61
"^b""^7       6" C,2 D,2 _E,2 E,2 | D,4 B,,4 | F,4 G,4 |"^6    5""^11""^#10" C,2 C,2 D,2 D,2 | %65
"^6" G,4 E,4 | ^F,4 G,4 | G,,2 A,,2 B,,2 C,2 |"^11""^#10" D,4 D,,4 | G,,8 |] %70

